svgs/light/file-chart-column.svg

<svg xmlns="http://www.w3.org/2000/svg" viewBox="0 0 384 512"><!-- Font Awesome Pro 6.0.0-alpha2 by @fontawesome - https://fontawesome.com License - https://fontawesome.com/license (Commercial License) --><path d="M365.256 125.254L258.746 18.746C246.744 6.742 230.465 0 213.49 0H64C28.654 0 0 28.654 0 64V448C0 483.346 28.654 512 64 512H320C355.348 512 384 483.346 384 448V170.51C384 153.535 377.258 137.258 365.256 125.254ZM224 34.076C228.477 35.643 232.666 37.922 236.119 41.375L342.627 147.879C346.08 151.332 348.357 155.523 349.924 160H240C231.188 160 224 152.828 224 144V34.076ZM352 448C352 465.645 337.645 480 320 480H64C46.355 480 32 465.645 32 448V64C32 46.355 46.355 32 64 32H192V144C192 170.469 213.531 192 240 192H352V448ZM96 352C87.156 352 80 359.156 80 368V432C80 440.844 87.156 448 96 448S112 440.844 112 432V368C112 359.156 104.844 352 96 352ZM192 224C183.156 224 176 231.156 176 240V432C176 440.844 183.156 448 192 448S208 440.844 208 432V240C208 231.156 200.844 224 192 224ZM288 448C296.844 448 304 440.844 304 432V304C304 295.156 296.844 288 288 288S272 295.156 272 304V432C272 440.844 279.156 448 288 448Z"/></svg>

<svg xmlns="http://www.w3.org/2000/svg" viewBox="0 0 384 512"><!--! Font Awesome Pro 6.3.0 by @fontawesome - https://fontawesome.com License - https://fontawesome.com/license (Commercial License) Copyright 2023 Fonticons, Inc. --><path d="M365.3 125.3l-106.5-106.5C246.7 6.742 230.5 0 213.5 0H64C28.65 0 0 28.65 0 64l.0065 384c0 35.35 28.65 64 64 64H320c35.35 0 64-28.65 64-64V170.5C384 153.5 377.3 137.3 365.3 125.3zM224 34.08c4.477 1.566 8.666 3.846 12.12 7.299l106.5 106.5C346.1 151.3 348.4 155.5 349.9 160H240C231.2 160 224 152.8 224 144V34.08zM352 448c0 17.64-14.36 32-32 32H64c-17.64 0-32-14.36-32-32V64c0-17.64 14.36-32 32-32h128v112C192 170.5 213.5 192 240 192H352V448zM96 352c-8.844 0-16 7.156-16 16v64C80 440.8 87.16 448 96 448s16-7.156 16-16v-64C112 359.2 104.8 352 96 352zM192 224C183.2 224 176 231.2 176 240v192c0 8.844 7.156 16 16 16s16-7.156 16-16v-192C208 231.2 200.8 224 192 224zM288 448c8.844 0 16-7.156 16-16v-128C304 295.2 296.8 288 288 288s-16 7.156-16 16v128C272 440.8 279.2 448 288 448z"/></svg>
